X:478
T: WENN ALLE BAECHLEIN FLIESSEN
N: E0429B
O: Europa, Mitteleuropa, Deutschland, Hessen, Dillkreis; Lahnkreis
R: Liebes - Lied
M: 6/8
L: 1/16
K: G
G2 | G2B2B2B2d2d2 | B6A4
e2 | d2c2B2A6 | G6z4
GB | d4d2d4e2 | d2c2c2e6 |
B6d6 | d2A2A2A4
e2 | d2c2B2A6 | G6z4

@@@ Tune index: 4128
